X:5670
T:Gan Ainm
R:Reel
C:
S:
H:
N:
D:Milltown Session
Z:Adrian Scahill
M:4/4
L:1/8
K:G
A2 (3AAA cAA2|BAGA Bcd2|g2dB Ggge|dBGA BAA2|\
A2 (3AAA cAA2|BAGA Bcd2|(3EFG AB cdef|gedB BAA2:||\
eaag a3b|a2bg agef|g2dg g2ba|gedB BAA2|\
eaag a3b|a2bg agef|gedB cdef|gedB BAA2:||


